packages/blockchain-info-components/src/Images/img/google-play-badge.svg

<svg fill="none" height="48" viewBox="0 0 141 48" width="141" xmlns="http://www.w3.org/2000/svg" xmlns:xlink="http://www.w3.org/1999/xlink"><linearGradient id="a" gradientUnits="userSpaceOnUse" x1="24.2502" x2="8.2144" y1="12.2184" y2="28.2542"><stop offset="0" stop-color="#00a0ff"/><stop offset=".00657445" stop-color="#00a1ff"/><stop offset=".2601" stop-color="#00beff"/><stop offset=".5122" stop-color="#00d2ff"/><stop offset=".7604" stop-color="#00dfff"/><stop offset="1" stop-color="#00e3ff"/></linearGradient><linearGradient id="b" gradientUnits="userSpaceOnUse" x1="35.7495" x2="12.629" y1="23.0077" y2="23.0077"><stop offset="0" stop-color="#ffe000"/><stop offset=".4087" stop-color="#ffbd00"/><stop offset=".7754" stop-color="#ffa500"/><stop offset="1" stop-color="#ff9c00"/></linearGradient><linearGradient id="c" gradientUnits="userSpaceOnUse" x1="27.1428" x2="5.397" y1="25.2008" y2="46.9466"><stop offset="0" stop-color="#ff3a44"/><stop offset="1" stop-color="#c31162"/></linearGradient><linearGradient id="d" gradientUnits="userSpaceOnUse" x1="10.393" x2="20.1035" y1="4.06514" y2="13.7755"><stop offset="0" stop-color="#32a071"/><stop offset=".0685" stop-color="#2da771"/><stop offset=".4762" stop-color="#15cf74"/><stop offset=".8009" stop-color="#06e775"/><stop offset="1" stop-color="#00f076"/></linearGradient><path d="m134.815 48h-129.62982c-2.9037 0-5.18518-2.64-5.18518-6v-36c0-3.36 2.28148-6 5.18518-6h129.62982c2.904 0 5.185 2.64 5.185 6v36c0 3.24-2.281 6-5.185 6z" fill="#000"/><g fill="#fff"><path d="m49.8799 12.2393c0 .96-.24 1.8-.84 2.4-.72.72-1.56 1.08-2.64 1.08s-1.92-.36-2.64-1.08-1.08-1.56-1.08-2.64.36-1.92 1.08-2.64 1.56-1.08 2.64-1.08c.48 0 .96.12 1.44.36s.84.48 1.08.84l-.6.6c-.48-.6-1.08-.84-1.92-.84-.72 0-1.44.24-1.92.84-.6.48-.84 1.2-.84 2.04s.24 1.56.84 2.04 1.2.84 1.92.84c.84 0 1.44-.24 2.04-.84.36-.36.6-.84.6-1.44h-2.64v-.84h3.48z" stroke="#fff" stroke-miterlimit="10" stroke-width=".2"/><path d="m55.3999 9.23941h-3.24v2.27999h3v.84h-3v2.28h3.24v.96h-4.1999v-7.19999h4.1999z" stroke="#fff" stroke-miterlimit="10" stroke-width=".2"/><path d="m59.3599 15.5994h-.96v-6.35999h-2.04v-.84h5.04v.84h-2.04z" stroke="#fff" stroke-miterlimit="10" stroke-width=".2"/><path d="m64.8799 15.5994v-7.19999h.96v7.19999z" stroke="#fff" stroke-miterlimit="10" stroke-width=".2"/><path d="m69.9199 15.5994h-.96v-6.35999h-2.04v-.84h4.92v.84h-2.04v6.35999z" stroke="#fff" stroke-miterlimit="10" stroke-width=".2"/><path d="m81.32 14.6393c-.72.72-1.56 1.08-2.64 1.08s-1.92-.36-2.64-1.08-1.08-1.56-1.08-2.64.36-1.92 1.08-2.64 1.56-1.08 2.64-1.08 1.92.36 2.64 1.08 1.08 1.56 1.08 2.64-.36 1.92-1.08 2.64zm-4.56-.6c.48.48 1.2.84 1.92.84s1.44-.24 1.92-.84c.48-.48.84-1.2.84-2.04s-.24-1.56-.84-2.04c-.48-.48-1.2-.84-1.92-.84s-1.44.24-1.92.84c-.48.48-.84 1.2-.84 2.04s.24 1.56.84 2.04z" stroke="#fff" stroke-miterlimit="10" stroke-width=".2"/><path d="m83.72 15.5994v-7.19999h1.08l3.48 5.63999v-1.44-4.19999h.96v7.19999h-.96l-3.72-5.87999v1.43999 4.44z" stroke="#fff" stroke-miterlimit="10" stroke-width=".2"/><path d="m69.766 25.7278c-2.4681 0-4.422 1.8107-4.422 4.3255 0 2.4142 1.9539 4.3254 4.422 4.3254 2.468 0 4.4219-1.8107 4.4219-4.3254 0-2.6154-1.9539-4.3255-4.4219-4.3255zm0 6.8402c-1.3369 0-2.4681-1.1065-2.4681-2.6153 0-1.5089 1.1312-2.6154 2.4681-2.6154 1.3368 0 2.468 1.0059 2.468 2.6154 0 1.5088-1.1312 2.6153-2.468 2.6153zm-9.5639-6.8402c-2.4681 0-4.422 1.8107-4.422 4.3255 0 2.4142 1.9539 4.3254 4.422 4.3254s4.422-1.8107 4.422-4.3254c0-2.6154-1.9539-4.3255-4.422-4.3255zm0 6.8402c-1.3368 0-2.4681-1.1065-2.4681-2.6153 0-1.5089 1.1313-2.6154 2.4681-2.6154 1.3369 0 2.4681 1.0059 2.4681 2.6154 0 1.5088-1.1312 2.6153-2.4681 2.6153zm-11.4149-5.5325v1.8107h4.422c-.1028 1.0059-.5142 1.8106-1.0283 2.3136-.6171.6035-1.6454 1.3077-3.3937 1.3077-2.7766 0-4.8333-2.1125-4.8333-4.8284 0-2.716 2.1596-4.8284 4.8333-4.8284 1.4398 0 2.571.6035 3.3937 1.3076l1.3368-1.3076c-1.1312-1.006-2.5709-1.8107-4.6276-1.8107-3.7022 0-6.8901 3.0178-6.8901 6.6391s3.1879 6.639 6.8901 6.639c2.0567 0 3.4964-.6035 4.7305-1.9112 1.234-1.2071 1.6454-2.9172 1.6454-4.2249 0-.4024 0-.8047-.1029-1.1065zm46.688 1.4083c-.4114-1.0059-1.4397-2.716-3.7021-2.716-2.2625 0-4.1135 1.7101-4.1135 4.3255 0 2.4142 1.851 4.3254 4.3191 4.3254 1.9539 0 3.188-1.2071 3.5993-1.9112l-1.4397-1.006c-.5142.7042-1.1312 1.2071-2.1596 1.2071-1.0283 0-1.6454-.4023-2.1596-1.3077l5.8618-2.4142zm-5.9646 1.4083c0-1.6095 1.3369-2.5148 2.2625-2.5148.7198 0 1.4397.4023 1.6453.9053zm-4.8333 4.1242h1.9539v-12.5739h-1.9539zm-3.0851-7.3432c-.5142-.5029-1.3369-1.0059-2.3652-1.0059-2.1596 0-4.2164 1.9113-4.2164 4.3255s1.9539 4.2248 4.2164 4.2248c1.0283 0 1.851-.5029 2.2624-1.0059h.1028v.6035c0 1.6095-.9255 2.5148-2.3652 2.5148-1.1313 0-1.954-.8047-2.1596-1.5088l-1.6454.7041c.5142 1.1065 1.7482 2.5148 3.9078 2.5148 2.2624 0 4.1135-1.3077 4.1135-4.426v-7.645h-1.8511zm-2.2624 5.9349c-1.3369 0-2.4681-1.1065-2.4681-2.6153 0-1.5089 1.1312-2.6154 2.4681-2.6154s2.3652 1.1065 2.3652 2.6154c0 1.5088-1.0283 2.6153-2.3652 2.6153zm25.0922-11.1656h-4.6277v12.5739h1.9537v-4.7278h2.674c2.16 0 4.216-1.5089 4.216-3.9231s-2.056-3.923-4.216-3.923zm.103 6.0355h-2.777v-4.3255h2.777c1.44 0 2.262 1.2071 2.262 2.1125-.103 1.1065-.925 2.213-2.262 2.213zm11.826-1.8107c-1.44 0-2.879.6036-3.394 1.9113l1.749.7041c.411-.7041 1.028-.9053 1.748-.9053 1.028 0 1.954.6035 2.057 1.6094v.1006c-.309-.2011-1.132-.5029-1.954-.5029-1.851 0-3.702 1.0059-3.702 2.8165 0 1.7101 1.542 2.8166 3.188 2.8166 1.336 0 1.953-.6035 2.468-1.2071h.102v1.0059h1.852v-4.8284c-.206-2.213-1.954-3.5207-4.114-3.5207zm-.206 6.9408c-.617 0-1.542-.3017-1.542-1.1065 0-1.0059 1.131-1.3077 2.057-1.3077.822 0 1.234.2012 1.748.4024-.206 1.2071-1.234 2.0118-2.263 2.0118zm10.798-6.639-2.159 5.4319h-.103l-2.263-5.4319h-2.056l3.393 7.645-1.954 4.2248h1.954l5.245-11.8698zm-17.276 8.0473h1.954v-12.5739h-1.954z"/></g><path d="m13.3576 11.0625c-.2866.2867-.4777.7644-.4777 1.3377v21.1169c0 .5733.1911 1.051.4777 1.3377l.0956.0955 11.8484-11.8483v-.0956-.0955z" fill="url(#a)"/><path d="m29.2191 27.115-3.9176-3.9176v-.1911-.0955l3.9176-3.9176.0956.0955 4.682 2.6755c1.3377.7644 1.3377 2.0065 0 2.7709z" fill="url(#b)"/><path d="m29.3147 27.02-4.0131-4.0132-11.9439 11.9439c.4777.4778 1.1466.4778 2.0065.0956z" fill="url(#c)"/><path d="m29.3147 18.9939-13.9505-7.9308c-.8599-.4777-1.5288-.3822-2.0065.0956l11.9439 11.8483z" fill="url(#d)"/><path d="m29.2192 26.9238-13.855 7.8352c-.7644.4778-1.4332.3822-1.911 0l-.0955.0956.0955.0955c.4778.3822 1.1466.4778 1.911 0z" fill="#000" opacity=".2"/><path d="m13.3578 34.7586c-.2867-.2866-.3822-.7644-.3822-1.3377v.0955c0 .5734.1911 1.0511.4777 1.3378v-.0956z" fill="#000" opacity=".12"/><path d="m33.9968 24.249-4.7776 2.6754.0956.0956 4.682-2.6754c.6689-.3823.9555-.86.9555-1.3378 0 .4778-.3822.86-.9555 1.2422z" fill="#000" opacity=".12"/><path d="m15.3644 11.1583 18.6325 10.6062c.5733.3822.9555.7644.9555 1.2421 0-.4777-.2867-.9555-.9555-1.3377l-18.6325-10.6062c-1.3377-.7644-2.3888-.0955-2.3888 1.4333v.0955c0-1.5288 1.0511-2.1976 2.3888-1.4332z" fill="#fff" opacity=".25"/></svg>

<svg width="141" height="48" viewBox="0 0 141 48" fill="none" xmlns="http://www.w3.org/2000/svg">
<path d="M134.815 48H5.18518C2.28148 48 0 45.36 0 42V6C0 2.64 2.28148 0 5.18518 0H134.815C137.719 0 140 2.64 140 6V42C140 45.24 137.719 48 134.815 48Z" fill="black"/>
<path d="M49.8799 12.2393C49.8799 13.1993 49.6399 14.0393 49.0399 14.6393C48.3199 15.3593 47.4799 15.7193 46.3999 15.7193C45.3199 15.7193 44.4799 15.3593 43.7599 14.6393C43.0399 13.9193 42.6799 13.0793 42.6799 11.9993C42.6799 10.9193 43.0399 10.0793 43.7599 9.3593C44.4799 8.6393 45.3199 8.2793 46.3999 8.2793C46.8799 8.2793 47.3599 8.3993 47.8399 8.6393C48.3199 8.8793 48.6799 9.1193 48.9199 9.4793L48.3199 10.0793C47.8399 9.4793 47.2399 9.2393 46.3999 9.2393C45.6799 9.2393 44.9599 9.4793 44.4799 10.0793C43.8799 10.5593 43.6399 11.2793 43.6399 12.1193C43.6399 12.9593 43.8799 13.6793 44.4799 14.1593C45.0799 14.6393 45.6799 14.9993 46.3999 14.9993C47.2399 14.9993 47.8399 14.7593 48.4399 14.1593C48.7999 13.7993 49.0399 13.3193 49.0399 12.7193H46.3999V11.8793H49.8799C49.8799 11.8793 49.8799 12.1193 49.8799 12.2393Z" fill="white" stroke="white" stroke-width="0.2" stroke-miterlimit="10"/>
<path d="M55.3999 9.23941H52.1599V11.5194H55.1599V12.3594H52.1599V14.6394H55.3999V15.5994H51.2V8.39941H55.3999V9.23941Z" fill="white" stroke="white" stroke-width="0.2" stroke-miterlimit="10"/>
<path d="M59.3599 15.5994H58.3999V9.23941H56.3599V8.39941H61.3999V9.23941H59.3599V15.5994Z" fill="white" stroke="white" stroke-width="0.2" stroke-miterlimit="10"/>
<path d="M64.8799 15.5994V8.39941H65.8399V15.5994H64.8799Z" fill="white" stroke="white" stroke-width="0.2" stroke-miterlimit="10"/>
<path d="M69.9199 15.5994H68.9599V9.23941H66.9199V8.39941H71.8399V9.23941H69.7999V15.5994H69.9199Z" fill="white" stroke="white" stroke-width="0.2" stroke-miterlimit="10"/>
<path d="M81.32 14.6393C80.6 15.3593 79.76 15.7193 78.68 15.7193C77.6 15.7193 76.76 15.3593 76.04 14.6393C75.32 13.9193 74.96 13.0793 74.96 11.9993C74.96 10.9193 75.32 10.0793 76.04 9.3593C76.76 8.6393 77.6 8.2793 78.68 8.2793C79.76 8.2793 80.6 8.6393 81.32 9.3593C82.04 10.0793 82.4 10.9193 82.4 11.9993C82.4 13.0793 82.04 13.9193 81.32 14.6393ZM76.76 14.0393C77.24 14.5193 77.96 14.8793 78.68 14.8793C79.4 14.8793 80.12 14.6393 80.6 14.0393C81.08 13.5593 81.44 12.8393 81.44 11.9993C81.44 11.1593 81.2 10.4393 80.6 9.9593C80.12 9.4793 79.4 9.1193 78.68 9.1193C77.96 9.1193 77.24 9.3593 76.76 9.9593C76.28 10.4393 75.92 11.1593 75.92 11.9993C75.92 12.8393 76.16 13.5593 76.76 14.0393Z" fill="white" stroke="white" stroke-width="0.2" stroke-miterlimit="10"/>
<path d="M83.72 15.5994V8.39941H84.8L88.28 14.0394V12.5994V8.39941H89.24V15.5994H88.28L84.56 9.71941V11.1594V15.5994H83.72Z" fill="white" stroke="white" stroke-width="0.2" stroke-miterlimit="10"/>
<path d="M69.766 25.7278C67.2979 25.7278 65.344 27.5385 65.344 30.0533C65.344 32.4675 67.2979 34.3787 69.766 34.3787C72.234 34.3787 74.1879 32.568 74.1879 30.0533C74.1879 27.4379 72.234 25.7278 69.766 25.7278ZM69.766 32.568C68.4291 32.568 67.2979 31.4615 67.2979 29.9527C67.2979 28.4438 68.4291 27.3373 69.766 27.3373C71.1028 27.3373 72.234 28.3432 72.234 29.9527C72.234 31.4615 71.1028 32.568 69.766 32.568ZM60.2021 25.7278C57.734 25.7278 55.7801 27.5385 55.7801 30.0533C55.7801 32.4675 57.734 34.3787 60.2021 34.3787C62.6702 34.3787 64.6241 32.568 64.6241 30.0533C64.6241 27.4379 62.6702 25.7278 60.2021 25.7278ZM60.2021 32.568C58.8653 32.568 57.734 31.4615 57.734 29.9527C57.734 28.4438 58.8653 27.3373 60.2021 27.3373C61.539 27.3373 62.6702 28.3432 62.6702 29.9527C62.6702 31.4615 61.539 32.568 60.2021 32.568ZM48.7872 27.0355V28.8462H53.2092C53.1064 29.8521 52.695 30.6568 52.1809 31.1598C51.5638 31.7633 50.5355 32.4675 48.7872 32.4675C46.0106 32.4675 43.9539 30.355 43.9539 27.6391C43.9539 24.9231 46.1135 22.8107 48.7872 22.8107C50.227 22.8107 51.3582 23.4142 52.1809 24.1183L53.5177 22.8107C52.3865 21.8047 50.9468 21 48.8901 21C45.1879 21 42 24.0178 42 27.6391C42 31.2604 45.1879 34.2781 48.8901 34.2781C50.9468 34.2781 52.3865 33.6746 53.6206 32.3669C54.8546 31.1598 55.266 29.4497 55.266 28.142C55.266 27.7396 55.266 27.3373 55.1631 27.0355H48.7872ZM95.4752 28.4438C95.0638 27.4379 94.0355 25.7278 91.7731 25.7278C89.5106 25.7278 87.6596 27.4379 87.6596 30.0533C87.6596 32.4675 89.5106 34.3787 91.9787 34.3787C93.9326 34.3787 95.1667 33.1716 95.578 32.4675L94.1383 31.4615C93.6241 32.1657 93.0071 32.6686 91.9787 32.6686C90.9504 32.6686 90.3333 32.2663 89.8191 31.3609L95.6809 28.9467L95.4752 28.4438ZM89.5106 29.8521C89.5106 28.2426 90.8475 27.3373 91.7731 27.3373C92.4929 27.3373 93.2128 27.7396 93.4184 28.2426L89.5106 29.8521ZM84.6773 33.9763H86.6312V21.4024H84.6773V33.9763ZM81.5922 26.6331C81.078 26.1302 80.2553 25.6272 79.227 25.6272C77.0674 25.6272 75.0106 27.5385 75.0106 29.9527C75.0106 32.3669 76.9645 34.1775 79.227 34.1775C80.2553 34.1775 81.078 33.6746 81.4894 33.1716H81.5922V33.7751C81.5922 35.3846 80.6667 36.2899 79.227 36.2899C78.0957 36.2899 77.273 35.4852 77.0674 34.7811L75.422 35.4852C75.9362 36.5917 77.1702 38 79.3298 38C81.5922 38 83.4433 36.6923 83.4433 33.574V25.929H81.5922V26.6331ZM79.3298 32.568C77.9929 32.568 76.8617 31.4615 76.8617 29.9527C76.8617 28.4438 77.9929 27.3373 79.3298 27.3373C80.6667 27.3373 81.695 28.4438 81.695 29.9527C81.695 31.4615 80.6667 32.568 79.3298 32.568ZM104.422 21.4024H99.7943V33.9763H101.748V29.2485H104.422C106.582 29.2485 108.638 27.7396 108.638 25.3254C108.638 22.9112 106.582 21.4024 104.422 21.4024ZM104.525 27.4379H101.748V23.1124H104.525C105.965 23.1124 106.787 24.3195 106.787 25.2249C106.684 26.3314 105.862 27.4379 104.525 27.4379ZM116.351 25.6272C114.911 25.6272 113.472 26.2308 112.957 27.5385L114.706 28.2426C115.117 27.5385 115.734 27.3373 116.454 27.3373C117.482 27.3373 118.408 27.9408 118.511 28.9467V29.0473C118.202 28.8462 117.379 28.5444 116.557 28.5444C114.706 28.5444 112.855 29.5503 112.855 31.3609C112.855 33.071 114.397 34.1775 116.043 34.1775C117.379 34.1775 117.996 33.574 118.511 32.9704H118.613V33.9763H120.465V29.1479C120.259 26.9349 118.511 25.6272 116.351 25.6272ZM116.145 32.568C115.528 32.568 114.603 32.2663 114.603 31.4615C114.603 30.4556 115.734 30.1538 116.66 30.1538C117.482 30.1538 117.894 30.355 118.408 30.5562C118.202 31.7633 117.174 32.568 116.145 32.568ZM126.943 25.929L124.784 31.3609H124.681L122.418 25.929H120.362L123.755 33.574L121.801 37.7988H123.755L129 25.929H126.943ZM109.667 33.9763H111.621V21.4024H109.667V33.9763Z" fill="white"/>
<path d="M13.3576 11.0625C13.071 11.3492 12.8799 11.8269 12.8799 12.4002V33.5171C12.8799 34.0904 13.071 34.5681 13.3576 34.8548L13.4532 34.9503L25.3016 23.102V23.0064V22.9109L13.3576 11.0625Z" fill="url(#paint0_linear)"/>
<path d="M29.2191 27.115L25.3015 23.1974V23.0063V22.9108L29.2191 18.9932L29.3147 19.0887L33.9967 21.7642C35.3344 22.5286 35.3344 23.7707 33.9967 24.5351L29.2191 27.115Z" fill="url(#paint1_linear)"/>
<path d="M29.3147 27.02L25.3016 23.0068L13.3577 34.9507C13.8354 35.4285 14.5043 35.4285 15.3642 35.0463L29.3147 27.02Z" fill="url(#paint2_linear)"/>
<path d="M29.3147 18.9939L15.3642 11.0631C14.5043 10.5854 13.8354 10.6809 13.3577 11.1587L25.3016 23.007L29.3147 18.9939Z" fill="url(#paint3_linear)"/>
<path opacity="0.2" d="M29.2192 26.9238L15.3642 34.759C14.5998 35.2368 13.931 35.1412 13.4532 34.759L13.3577 34.8546L13.4532 34.9501C13.931 35.3323 14.5998 35.4279 15.3642 34.9501L29.2192 26.9238Z" fill="black"/>
<path opacity="0.12" d="M13.3578 34.7586C13.0711 34.472 12.9756 33.9942 12.9756 33.4209V33.5164C12.9756 34.0898 13.1667 34.5675 13.4533 34.8542V34.7586H13.3578Z" fill="black"/>
<path opacity="0.12" d="M33.9968 24.249L29.2192 26.9244L29.3148 27.02L33.9968 24.3446C34.6657 23.9623 34.9523 23.4846 34.9523 23.0068C34.9523 23.4846 34.5701 23.8668 33.9968 24.249Z" fill="black"/>
<path opacity="0.25" d="M15.3644 11.1583L33.9969 21.7645C34.5702 22.1467 34.9524 22.5289 34.9524 23.0066C34.9524 22.5289 34.6657 22.0511 33.9969 21.6689L15.3644 11.0627C14.0267 10.2983 12.9756 10.9672 12.9756 12.496V12.5915C12.9756 11.0627 14.0267 10.3939 15.3644 11.1583Z" fill="white"/>
<defs>
<linearGradient id="paint0_linear" x1="24.2502" y1="12.2184" x2="8.2144" y2="28.2542" gradientUnits="userSpaceOnUse">
<stop stop-color="#00A0FF"/>
<stop offset="0.00657445" stop-color="#00A1FF"/>
<stop offset="0.2601" stop-color="#00BEFF"/>
<stop offset="0.5122" stop-color="#00D2FF"/>
<stop offset="0.7604" stop-color="#00DFFF"/>
<stop offset="1" stop-color="#00E3FF"/>
</linearGradient>
<linearGradient id="paint1_linear" x1="35.7495" y1="23.0077" x2="12.629" y2="23.0077" gradientUnits="userSpaceOnUse">
<stop stop-color="#FFE000"/>
<stop offset="0.4087" stop-color="#FFBD00"/>
<stop offset="0.7754" stop-color="#FFA500"/>
<stop offset="1" stop-color="#FF9C00"/>
</linearGradient>
<linearGradient id="paint2_linear" x1="27.1428" y1="25.2008" x2="5.397" y2="46.9466" gradientUnits="userSpaceOnUse">
<stop stop-color="#FF3A44"/>
<stop offset="1" stop-color="#C31162"/>
</linearGradient>
<linearGradient id="paint3_linear" x1="10.393" y1="4.06514" x2="20.1035" y2="13.7755" gradientUnits="userSpaceOnUse">
<stop stop-color="#32A071"/>
<stop offset="0.0685" stop-color="#2DA771"/>
<stop offset="0.4762" stop-color="#15CF74"/>
<stop offset="0.8009" stop-color="#06E775"/>
<stop offset="1" stop-color="#00F076"/>
</linearGradient>
</defs>
</svg>
